Qt/Resources/Icons/-Y.svg

<svg width="64" height="64" xmlns="http://www.w3.org/2000/svg" data-name="Layer 1">

 <g>
  <title>Layer 1</title>
  <path id="svg_1" fill="#0000ff" d="m39.07,18.2l9.31,-14l9.32,14l-5,0l0,21.26l-8.7,0l0,-21.26l-4.93,0z"/>
  <path id="svg_2" fill="#6f6f59" d="m52.75,40.58l-8.75,0a1.13,1.13 0 0 1 -1.13,-1.12l0,-20.13l-3.8,0a1.12,1.12 0 0 1 -1,-0.6a1.11,1.11 0 0 1 0.05,-1.15l9.31,-14a1.14,1.14 0 0 1 0.94,-0.5l0,0a1.14,1.14 0 0 1 0.94,0.5l9.32,14.05a1.12,1.12 0 0 1 -0.94,1.75l-3.81,0l0,20.08a1.12,1.12 0 0 1 -1.13,1.12zm-7.61,-2.25l6.49,0l0,-20.13a1.13,1.13 0 0 1 1.12,-1.13l2.85,0l-7.22,-10.88l-7.21,10.88l2.83,0a1.13,1.13 0 0 1 1.12,1.13l0.02,20.13z"/>
  <path id="svg_3" fill="#ff0000" d="m17.81,58.79l-14,-9.31l14,-9.32l0,4.94l21.26,0l0,8.74l-21.26,0l0,4.95z"/>
  <path id="svg_4" fill="#6f6f59" d="m17.81,59.91a1.17,1.17 0 0 1 -0.62,-0.18l-14,-9.31a1.13,1.13 0 0 1 -0.51,-0.94a1.12,1.12 0 0 1 0.51,-0.94l14,-9.32a1.12,1.12 0 0 1 1.75,0.94l0,3.84l20.13,0a1.13,1.13 0 0 1 1.13,1.1l0,8.74a1.14,1.14 0 0 1 -1.13,1.16l-20.13,0l0,3.82a1.11,1.11 0 0 1 -1.13,1.12l0,-0.03zm-12,-10.43l10.88,7.21l0,-2.85a1.13,1.13 0 0 1 1.12,-1.13l20.13,0l0,-6.48l-20.13,0a1.12,1.12 0 0 1 -1.12,-1.13l0,-2.84l-10.88,7.22z"/>
  <rect transform="rotate(-180 48.23 49.23)" id="svg_5" fill="#00ff00" height="18.46" width="18.46" y="40" x="39"/>
  <path id="svg_6" fill="#6f6f59" d="m57.71,59.05l-18.47,0a1.13,1.13 0 0 1 -1.12,-1.13l0,-18.46a1.12,1.12 0 0 1 1.12,-1.13l18.47,0a1.12,1.12 0 0 1 1.12,1.13l0,18.46a1.13,1.13 0 0 1 -1.12,1.13zm-17.34,-2.26l16.21,0l0,-16.21l-16.21,0l0,16.21z"/>
  <path id="svg_7" fill="#787878" d="m14.71,24.45l-7.47,0l0,-2.86l7.47,0l0,2.86z"/>
  <path id="svg_8" fill="#787878" d="m24.93,21l0.07,0l4,-8.52l4.06,0l-6.34,12l0,6.5l-3.7,0l0,-6.75l-6.19,-11.79l4.07,0l4.03,8.56z"/>
 </g>
</svg>

<svg id="Layer_1" data-name="Layer 1" xmlns="http://www.w3.org/2000/svg" viewBox="0 0 64 64"><path d="M39.07,18.2l9.31-14L57.7,18.2h-5V39.46H44V18.2Z" style="fill:#a7d28c"/><path d="M52.75,40.58H44a1.13,1.13,0,0,1-1.13-1.12V19.33H39.07a1.12,1.12,0,0,1-1-.6,1.11,1.11,0,0,1,.05-1.15l9.31-14a1.14,1.14,0,0,1,.94-.5h0a1.14,1.14,0,0,1,.94.5l9.32,14.05a1.12,1.12,0,0,1-.94,1.75H53.88V39.46A1.12,1.12,0,0,1,52.75,40.58Zm-7.61-2.25h6.49V18.2a1.13,1.13,0,0,1,1.12-1.13H55.6L48.38,6.19,41.17,17.07H44a1.13,1.13,0,0,1,1.12,1.13Z" style="fill:#6f6f59"/><path d="M17.81,58.79l-14-9.31,14-9.32V45.1H39.07v8.74H17.81Z" style="fill:#de4130"/><path d="M17.81,59.91a1.17,1.17,0,0,1-.62-.18l-14-9.31a1.13,1.13,0,0,1-.51-.94,1.12,1.12,0,0,1,.51-.94l14-9.32a1.12,1.12,0,0,1,1.75.94V44H39.07A1.13,1.13,0,0,1,40.2,45.1v8.74A1.14,1.14,0,0,1,39.07,55H18.94v3.82a1.11,1.11,0,0,1-1.13,1.12Zm-12-10.43,10.88,7.21V53.84a1.13,1.13,0,0,1,1.12-1.13H37.94V46.23H17.81a1.12,1.12,0,0,1-1.12-1.13V42.26Z" style="fill:#6f6f59"/><rect x="39.24" y="39.46" width="18.46" height="18.46" transform="translate(96.95 97.37) rotate(-180)" style="fill:#f3c017"/><path d="M57.71,59.05H39.24a1.13,1.13,0,0,1-1.12-1.13V39.46a1.12,1.12,0,0,1,1.12-1.13H57.71a1.12,1.12,0,0,1,1.12,1.13V57.92A1.13,1.13,0,0,1,57.71,59.05ZM40.37,56.79H56.58V40.58H40.37Z" style="fill:#6f6f59"/><path d="M14.71,24.45H7.24V21.59h7.47Z" style="fill:#787878"/><path d="M24.93,21H25l4-8.52h4.06l-6.34,12v6.5h-3.7V24.23L16.83,12.44H20.9Z" style="fill:#787878"/></svg>
